!!!!SEGMENT: Snf0124-Hic_accipiet_benedictionem--Regensburg_C120.krn
!!!id: Snf0124
!!!AGN: Motet
!!!SCT: Edwards, Gasch, Tröster (2021)
!!!voices: 4
!!!COM: Ludwig Senfl
!!!OTL: Hic accipiet benedictionem (Regensburg C120)
**kern	**text	**kern	**text	**kern	**text	**kern	**text
*part4	*part4	*part3	*part3	*part2	*part2	*part1	*part1
*staff4	*staff4	*staff3	*staff3	*staff2	*staff2	*staff1	*staff1
*I"Bassus	*	*I"Tenor	*	*I"Altus	*	*I"Superius	*
*I'B	*	*I'T	*	*I'A	*	*I'S	*
*clefF4	*	*clefGv2	*	*clefGv2	*	*clefG2	*
*	*	*	*	*	*	*	*
*k[]	*	*k[]	*	*k[]	*	*k[]	*
*	*	*	*	*	*	*	*
*M2/1	*	*M2/1	*	*M2/1	*	*M2/1	*
*met(C|)	*	*met(C|)	*	*met(C|)	*	*met(C|)	*
!!section: Prima pars: Hic accipiet benedictionem
!!!OMD: Prima pars: Hic accipiet benedictionem
=1	=1	=1	=1	=1	=1	=1	=1
0r	.	0r	.	1g	Hic	1g	Hic
.	.	.	.	2d	ac-	1a	ac-
.	.	.	.	[2f	-ci-	.	.
=2	=2	=2	=2	=2	=2	=2	=2
0r	.	1r	.	2f]	.	1cc	-ci-
.	.	.	.	4e	.	.	.
.	.	.	.	4d	.	.	.
.	.	1c	Hic	2e	.	1cc	-pi-
.	.	.	.	2e	-pi-	.	.
=3	=3	=3	=3	=3	=3	=3	=3
0r	.	2G	ac-	2.d	-et	1dd	.
.	.	1B	-ci-	.	.	.	.
.	.	.	.	4e	.	.	.
.	.	.	.	4f	.	1dd	-et
.	.	.	.	4d	.	.	.
.	.	4A	.	[2g	.	.	.
.	.	4G	.	.	.	.	.
=4	=4	=4	=4	=4	=4	=4	=4
1F	Hic	2A	.	2g]	.	2.cc	be-
.	.	2A	-pi-	2f	.	.	.
.	.	.	.	.	.	4dd	-ne-
2C	ac-	2.G	-et,	1g	.	2.ee	-di-
[2E	-ci-	.	.	.	.	.	.
.	.	4A	.	.	.	4ff	-cti-
=5	=5	=5	=5	=5	=5	=5	=5
2E]	.	4B	.	2r	.	2gg	-o-
.	.	4A	.	.	.	.	.
4D	.	1c	.	1G	be-	2ee	-nem
4C	.	.	.	.	.	.	.
2D	.	.	.	.	.	1ff	a
2D	-pi-	2B	.	2F	-ne-	.	.
=6	=6	=6	=6	=6	=6	=6	=6
1C	-et,	1c	.	2G	-di-	1ee	.
.	.	.	.	2.g	.	.	.
1r	.	1r	.	.	.	1dd	Do-
.	.	.	.	4f	.	.	.
.	.	.	.	2d	-cti-	.	.
=7	=7	=7	=7	=7	=7	=7	=7
0r	.	0r	.	2.e	-o-	1cc	-mi-
.	.	.	.	4d	-nem,	.	.
.	.	.	.	2B	.	1dd	.
.	.	.	.	4G	.	.	.
.	.	.	.	4A	.	.	.
=8	=8	=8	=8	=8	=8	=8	=8
0r	.	1G	hic	4B	.	1dd	-no,
.	.	.	.	4c	.	.	.
.	.	.	.	4d	.	.	.
.	.	.	.	4e	.	.	.
.	.	1A	ac-	2f	.	2r	.
.	.	.	.	2e	hic	[2cc	hic
=9	=9	=9	=9	=9	=9	=9	=9
0r	.	1c	-ci-	2A	ac-	2cc]	.
.	.	.	.	1e	-ci-	4b	ac-
.	.	.	.	.	.	4a	.
.	.	1c	-pi-	.	.	2g	-ci-
.	.	.	.	4d	.	[2a	.
.	.	.	.	4c	.	.	.
=10	=10	=10	=10	=10	=10	=10	=10
1r	.	1d	.	1B	-pi-	2a]	.
.	.	.	.	.	.	2g#i	-pi-
1D	hic	1d	-et	2.A	-et	1a	-et
.	.	.	.	4B	.	.	.
=11	=11	=11	=11	=11	=11	=11	=11
1E	ac-	0r	.	4c	.	2.g	be-
.	.	.	.	4A	.	.	.
.	.	.	.	1e	.	.	.
.	.	.	.	.	.	4a	.
1G	-ci-	.	.	.	.	4b	.
.	.	.	.	.	.	4g	.
.	.	.	.	4d	.	[2cc	.
.	.	.	.	4c	.	.	.
=12	=12	=12	=12	=12	=12	=12	=12
1G	-pi-	0r	.	1d	.	2cc]	.
.	.	.	.	.	.	2b	-ne-
1A	.	.	.	2r	.	2cc	-di-
.	.	.	.	[2c	be-	[2ee	-cti-
=13	=13	=13	=13	=13	=13	=13	=13
1A	-et	2r	.	4c]	.	4ee]	.
.	.	.	.	4d	.	4dd	.
.	.	1c	be-	2e	-ne-	4cc	.
.	.	.	.	.	.	4b	.
1F	be-	.	.	4f	-di-	2a	.
.	.	.	.	4e	.	.	.
.	.	[2d	-ne-	4d	.	2a	-o-
.	.	.	.	4c	.	.	.
=14	=14	=14	=14	=14	=14	=14	=14
1G	-ne-	2d]	.	2.B	.	1g	-nem
.	.	2e	-di-	.	.	.	.
.	.	.	.	4c	.	.	.
2A	-di-	2f	-cti-	2A	.	1r	.
2B	-cti-	[2g	-o-	2G	-cti-	.	.
=15	=15	=15	=15	=15	=15	=15	=15
1c	-o-	2g]	.	1g	-o-	2r	.
.	.	2e	-nem	.	.	2g	a
[1A	-nem	1f	a	[1c	-nem	2a	Do-
.	.	.	.	.	.	[2cc	.
=16	=16	=16	=16	=16	=16	=16	=16
1A]	.	1e	.	1c]	.	4cc]	.
.	.	.	.	.	.	4b	.
.	.	.	.	.	.	4a	.
.	.	.	.	.	.	4g	.
1B-X	a	1d	Do-	2r	.	4f	.
.	.	.	.	.	.	4d	.
.	.	.	.	[2g	a	2dd	.
=17	=17	=17	=17	=17	=17	=17	=17
1A	.	1c	-mi-	2g]	.	2ee	.
.	.	.	.	2f	.	4dd	.
.	.	.	.	.	.	4cc	.
1G	Do-	1d	.	2g	Do-	2b	.
.	.	.	.	4d	.	2g	-mi-
.	.	.	.	4e	.	.	.
=18	=18	=18	=18	=18	=18	=18	=18
1F	-mi-	1d	-no,	4f	.	1a	-no,
.	.	.	.	4e	.	.	.
.	.	.	.	4d	.	.	.
.	.	.	.	4c	.	.	.
1G	.	2r	.	2.B	.	2r	.
.	.	[2d	et	.	.	[2b	Do-
.	.	.	.	4c	-mi-	.	.
=19	=19	=19	=19	=19	=19	=19	=19
1G	-no,	2d]	.	2d	-no,	4b]	.
.	.	.	.	.	.	4cc	-mi-
.	.	2d	mi-	2G	et	2dd	-no,
2r	.	1e	-se-	2.G	mi-	2g	et
[2G	et	.	.	.	.	[2g	mi-
.	.	.	.	4A	.	.	.
=20	=20	=20	=20	=20	=20	=20	=20
2G]	.	1d	-ri-	1B	-se-	4g]	.
.	.	.	.	.	.	4a	.
2G	mi-	.	.	.	.	2b	-se-
1A	-se-	2c	-cor-	4c	-ri-	2e	-ri-
.	.	.	.	4d	.	.	.
.	.	2A	-di-	4e	.	[2e	-cor-
.	.	.	.	4f	.	.	.
=21	=21	=21	=21	=21	=21	=21	=21
1G	-ri-	1B	-am	2g	-cor-	4e]	.
.	.	.	.	.	.	4f	-di-
.	.	.	.	2G	-di-	2g	-am
[1F	-cor-	1c	a	1A	-am	2c	a
.	.	.	.	.	.	[2cc	De-
=22	=22	=22	=22	=22	=22	=22	=22
1F]	.	0A	De-	2F	a	4cc]	.
.	.	.	.	.	.	4b	.
.	.	.	.	2.f	De-	4a	.
.	.	.	.	.	.	4g	.
1D	-di-	.	.	.	.	1f	.
.	.	.	.	4e	.	.	.
.	.	.	.	4d	.	.	.
.	.	.	.	4c	.	.	.
=23	=23	=23	=23	=23	=23	=23	=23
0E	-am	0G	-o,	2B	.	1g	-o,
.	.	.	.	2.e	.	.	.
.	.	.	.	.	.	2r	.
.	.	.	.	4d	.	.	.
.	.	.	.	4c	.	2g	a
.	.	.	.	4B	.	.	.
=24	=24	=24	=24	=24	=24	=24	=24
1F	a	0r	.	4A	.	1a	De-
.	.	.	.	4G	.	.	.
.	.	.	.	1c	.	.	.
1D	De-	.	.	.	.	2f	.
.	.	.	.	2B	.	[2ff	.
=25	=25	=25	=25	=25	=25	=25	=25
0C	-o,	1A	sa-	1c	-o,	2ff]	.
.	.	.	.	.	.	4ee	.
.	.	.	.	.	.	4dd	.
.	.	1G	-lu-	2r	.	4ee	.
.	.	.	.	.	.	4dd	.
.	.	.	.	2e	a	4cc	.
.	.	.	.	.	.	4b	.
=26	=26	=26	=26	=26	=26	=26	=26
0r	.	1F	.	2f	De-	2a	.
.	.	.	.	2a	.	2cc	.
.	.	1G	-ta-	2.g	.	4b	.
.	.	.	.	.	.	4a	.
.	.	.	.	.	.	[2dd	.
.	.	.	.	4f	.	.	.
=27	=27	=27	=27	=27	=27	=27	=27
1E	sa-	1G	-ri	4e	.	2dd]	.
.	.	.	.	4d	.	.	.
.	.	.	.	1g	.	2cc	.
1D	-lu-	1A	.	.	.	2dd	-o,
.	.	.	.	2f#i	.	2d	a
=28	=28	=28	=28	=28	=28	=28	=28
1C	.	1r	.	2g	-o,	1e	De-
.	.	.	.	4G	.	.	.
.	.	.	.	4A	.	.	.
1D	-ta-	1F	su-	4B	.	2d	.
.	.	.	.	4A	.	.	.
.	.	.	.	[2d	.	2a	.
=29	=29	=29	=29	=29	=29	=29	=29
1D	-ri	1F	-o,	2d]	.	4b	.
.	.	.	.	.	.	4a	.
.	.	.	.	4A	.	2dd	.
.	.	.	.	4B	.	.	.
1E	.	2r	.	4c	.	2g	-o,
.	.	.	.	4B	.	.	.
.	.	[2G	qui-	[2e	sa-	[2cc	sa-
=30	=30	=30	=30	=30	=30	=30	=30
1C	su-	2G]	.	4e]	.	2cc]	.
.	.	.	.	4f	.	.	.
.	.	2G	-a	1g	.	4b	.
.	.	.	.	.	.	4a	.
1C	-o,	1G	haec	.	.	2g	-lu-
.	.	.	.	2e	-lu-	[2cc	-ta-
=31	=31	=31	=31	=31	=31	=31	=31
2r	.	[0F	est	2.f	-ta-	2cc]	.
1D	qui-	.	.	.	.	2f	-ri
.	.	.	.	4e	.	.	.
.	.	.	.	2.d	.	2b-X	su-
2D	-a	.	.	.	.	[2a	.
.	.	.	.	8cL	.	.	.
.	.	.	.	8BJ	.	.	.
=32	=32	=32	=32	=32	=32	=32	=32
1D	haec	1F]	.	2A	-ri	2a]	.
.	.	.	.	2B	su-	4g	.
.	.	.	.	.	.	4f	.
[1C	est	1G	ge-	1c	-o,	[1e	-o,
=33	=33	=33	=33	=33	=33	=33	=33
0C]	.	1A	-ne-	2r	.	1e]	.
.	.	.	.	2.c	qui-	.	.
.	.	1c	-ra-	.	.	2r	.
.	.	.	.	4B	.	.	.
.	.	.	.	4A	.	2e	qui-
.	.	.	.	4G	.	.	.
=34	=34	=34	=34	=34	=34	=34	=34
0r	.	1d	-ti-	2F	-a	4f	-a
.	.	.	.	.	.	4g	.
.	.	.	.	2f	haec	4a	.
.	.	.	.	.	.	4b	.
.	.	2c	-o	2e	est	2cc	.
.	.	2B	.	2d	.	[2dd	haec
=35	=35	=35	=35	=35	=35	=35	=35
0r	.	1c	.	2e	.	4dd]	.
.	.	.	.	.	.	4cc	.
.	.	.	.	1g	.	1cc	.
.	.	1d	.	.	.	.	.
.	.	.	.	[2f	.	2b	.
=36	=36	=36	=36	=36	=36	=36	=36
1C	ge-	1c	.	2f]	.	1cc	est
.	.	.	.	2e	.	.	.
1D	-ne-	1r	.	2f	.	1r	.
.	.	.	.	[2a	ge-	.	.
=37	=37	=37	=37	=37	=37	=37	=37
1F	-ra-	0r	.	4a]	.	2r	.
.	.	.	.	4g	.	.	.
.	.	.	.	4f	.	2a	ge-
.	.	.	.	4e	.	.	.
1G	-ti-	.	.	2d	.	2b	.
.	.	.	.	2e	-ne-	2g	-ne-
=38	=38	=38	=38	=38	=38	=38	=38
2F	-o	0r	.	2A	-ra-	2a	-ra-
2E	.	.	.	2e	.	2g	.
1F	.	.	.	2c	.	2.cc	.
.	.	.	.	2d	.	.	.
.	.	.	.	.	.	4b	.
=39	=39	=39	=39	=39	=39	=39	=39
1G	.	0r	.	1B	-ti-	1g	-ti-
1F	.	.	.	2A	-o	1a	-o
.	.	.	.	[2d	quae-	.	.
=40	=40	=40	=40	=40	=40	=40	=40
1D	quae-	1r	.	2d]	.	2r	.
.	.	.	.	1d	-ren-	1a	quae-
1D	-ren-	1A	quae-	.	.	.	.
.	.	.	.	[2f	-ti-	[2a	-ren-
=41	=41	=41	=41	=41	=41	=41	=41
1F	-ti-	1A	-ren-	2f]	.	2a]	.
.	.	.	.	1f	-um	1cc	-ti-
1F	-um	1c	-ti-	.	.	.	.
.	.	.	.	[2c	.	[2cc	-um
=42	=42	=42	=42	=42	=42	=42	=42
1C	Do-	1c	-um	4c]	.	2cc]	.
.	.	.	.	4d	.	.	.
.	.	.	.	2e	.	4g	.
.	.	.	.	.	.	4a	.
1BB	-mi-	1r	.	1d	.	4b	.
.	.	.	.	.	.	4a	.
.	.	.	.	.	.	4g	.
.	.	.	.	.	.	4f	.
=43	=43	=43	=43	=43	=43	=43	=43
1C	.	1r	.	2r	.	2.e	Do-
.	.	.	.	2.c	Do-	.	.
.	.	.	.	.	.	4f	.
1C	-num,	1G	Do-	.	.	1g	-mi-
.	.	.	.	4d	.	.	.
.	.	.	.	2e	.	.	.
=44	=44	=44	=44	=44	=44	=44	=44
0r	.	1F	-mi-	4f	-mi-	1a	-num,
.	.	.	.	4e	.	.	.
.	.	.	.	4d	.	.	.
.	.	.	.	4c	-num,	.	.
.	.	1G	.	2B	.	2d	.
.	.	.	.	2G	.	2dd	quae-
=45	=45	=45	=45	=45	=45	=45	=45
2r	.	1G	-num,	2g	quae-	2b	-ren-
2C	quae-	.	.	2e	-ren-	2cc	-ti-
2D	-ren-	2r	.	2f	-ti-	2a	-um,
2E	.	2G	quae-	2g	-um,	2g	.
=46	=46	=46	=46	=46	=46	=46	=46
2F	.	2A	-ren-	2c	quae-	2r	.
2D	-ti-	2B	.	2f	-ren-	2dd	quae-
1A	-um,	2c	.	2e	-ti-	2ee	-ren-
.	.	2A	-ti-	[2a	-um,	2cc	-ti-
=47	=47	=47	=47	=47	=47	=47	=47
2r	.	1e	-um,	2a]	.	1b	-um,
2E	quae-	.	.	2g	.	.	.
2F	-ren-	2r	.	2r	.	2a	.
2G	.	2B	quae-	2g	quae-	2dd	quae-
=48	=48	=48	=48	=48	=48	=48	=48
2A	.	2c	-ren-	2e	-ren-	2cc	-ren-
2F	-ti-	2d	.	2f	-ti-	2ff	-ti-
1c	-um	2e	.	1g	-um,	1ee	-um,
.	.	2c	-ti-	.	.	.	.
=49	=49	=49	=49	=49	=49	=49	=49
2r	.	1g	-um	2G	.	2dd	.
2G	Do-	.	.	2B	quae-	2ee	quae-
2A	.	2r	.	2c	-ren-	2a	-ren-
2D	.	2d	Do-	4A	-ti-	2dd	.
.	.	.	.	4B	.	.	.
=50	=50	=50	=50	=50	=50	=50	=50
1A	.	2e	.	4c	.	2.cc	.
.	.	.	.	4d	.	.	.
.	.	2A	.	4e	.	.	.
.	.	.	.	4f	.	4a	.
2G	.	1e	.	1g	-um	2b	.
2E	.	.	.	.	.	2cc	-ti-
=51	=51	=51	=51	=51	=51	=51	=51
2F	.	2d	.	2r	.	2a	-um
2G	.	2B	.	2d	Do-	2g	.
2E	.	2c	.	2e	.	2r	.
2F	.	2d	.	2A	.	2a	Do-
=52	=52	=52	=52	=52	=52	=52	=52
2D	.	2B	.	2d	.	2d	.
2C	.	2c	.	2e	.	1g	.
1D	-mi-	1A	-mi-	1d	-mi-	.	.
.	.	.	.	.	.	2f#i	-mi-
=53	=53	=53	=53	=53	=53	=53	=53
00Gl	-num.	00Gl	-num.	00dl	-num.	00gl	-num.
==	==	==	==	==	==	==	==
*-	*-	*-	*-	*-	*-	*-	*-
!!!system-decoration: [*]
!!!RDF**kern: i = editorial accidental
!!!RDF**kern: l = terminal long
!!!PTL: <i> New Senfl Edition: Motets for Four Voices (A-I) </i>
!!!PPR: Hollitzer Verlag
!!!PC#: Denkmäler der Tonkunst in Österreich 163.1
!!!PDT: 2021
!!!PED: Scott Lee Edwards, Stefan Gasch, and Sonja Tröster
!!!YEC: Copyright 2021 Denkmäler der Tonkunst in Österreich
!!!YEM: CC-BY-NC 4.0 (https://creativecommons.org/licenses/by-nc/4.0/legalcode)
!!!EED: Benjamin Ory
!!!EEV: 2023/10/21
!!!verovio: header true
!!!header-left: @{PTL}\n@{PED}, eds.\n@{PC#} (@{PDT})&nbsp;\n
!!!header-right:
!!!header-center:
